X:7827
T:Reinlender fr\aa Inherad
C:anon.
O:Norway
A:Inherad
R:Reinlender
Z:Transcribed by Frank Nordberg - http://www.musicaviva.com
F:http://abc.musicaviva.com/tunes/norway/reinlender-inherad/reinlender-inherad-1.abc
%u - upstroke
%v - downstroke
M:2/4
L:1/16
K:G
(uBc)|dgfe d"_4"edc|B2G2 G2(Bd)|c2A2 A2(Ac)|B2G2 GABc|
dgfe d"_4"edc|B2G2 G2(Bd)|c2F2 FDFA|G2G2 G2:|z2|
K:D
|:vA2f2 (fe)f2|B2g2 (gf)g2|e2A2 c2A2|d2F2 (FD)F2|
A2f2 (fe)f2|B2g2 (gf)g2|e2A2 cABc|d2d2 d2 z2:|
K:G
|:vGABc d2g2|GABc d2g2|GAB2 GAB2|(B2A2) A4|
ABcd c2f2|ABcd c2f2|cBAB cdef|g2g2 g2 z2:|
W:
W:
W:  From Musica Viva - http://www.musicaviva.com
W:  the Internet center for free sheet music downloads.

